X:1
T:Thirsting, LM
T:Thirsting, LM
T:Henry Bennett (1813-1868)
T:Public Domain Courtesy of the Cyber Hymnal™
C:Henry Bennett (1813-1868)
Z:Public Domain
Z:Courtesy of the Cyber Hymnal™
%%score ( 1 2 ) ( 3 4 )
L:1/8
Q:1/4=97
M:4/4
K:F
V:1 treble 
V:2 treble 
V:3 bass 
V:4 bass 
V:1
 ([A,F][B,G]) | [CA]3 [_EA] (BD) (AG) | [CF]2 [CE]2 [CF]3 [CG] | [CA]2 [_Ec]2 (cB) (DB) | %4
 A3 [EG] [EG]2 [Ec]2 | [Fc]2 [Ff]2 (ed) (Bd) | [Fd]3 [Fc] [Fc]2 [_EA]2 | (AG) (ed) [Fc]2 [CE]2 | %8
 [EG]3 F F2 |] %9
V:2
 x2 | x4 D2 D2 | x8 | x4 D2 D2 | (C2 F) x5 | x4 F2 F2 | x8 | D2 F2 x4 | x3 F F2 |] %9
V:3
 [F,,F,]2 | [F,,F,]3 [F,,F,] (F,G,) (A,B,) | (A,C) (B,G,) [F,A,]3 [E,G,] | %3
 F,2 [A,,=F,]2 [B,,^F,]2 [B,,G,]2 | (A,2 C)[C,C] [C,C]2 [B,C]2 | [A,C]2 [F,A,]2 [B,,B,]2 B,2 | %6
 [F,B,]3 [F,A,] [F,A,]2 (F,^F,) | [B,,G,]2 [=B,,^G,]2 [C,A,]2 [C,G,]2 | [C,B,]3 [F,A,] [F,A,]2 |] %9
V:4
 x2 | x4 B,,2 B,,2 | C,2 C,2 x4 | ^F,2 x6 | C,3 x5 | x6 (D,B,,) | x6 C,2 | x8 | x6 |] %9

